X:1690
T:Bantry Bay
M:C|
L:1/8
R:reel
D:John Blake, Lamond Gillespie and Mick Leahy: Traditional Irish Music fro
D:London
Z:Devin McCabe
K:G
GA|:BGAG EGDG|G2GF GBA^G|AEAB cBAG|A/2B/2A GB AEAB|
!cAAd ~B3D|ABAG EGDG|BGGB AG D/2E/2=F|1EDB,D G3A:|2EDB,D GABc|
!|:d2ed dBGB|efdf eBef|gfed BGBd|gbfa ~g3f|
!g2bg eged|~B3G EGDG|BGGB AG D/2E/2=F|1EDB,D GABc:|2EDB,D G2dA||
